icons/op-music-24.svg

<svg width="24" height="24" viewBox="0 0 24 24" fill="none" xmlns="http://www.w3.org/2000/svg">
<path d="M8.25 6.14173V15.7165C8.0625 15.685 7.875 15.685 7.6875 15.685C6.21875 15.685 5 16.6614 5 17.8583C5 19.0551 6.21875 20 7.6875 20C9.09375 20 10.2188 19.1496 10.375 18.0787V7.87402L16.8438 6.58268V13.5748C16.6562 13.5433 16.4688 13.5118 16.3125 13.5118C14.8125 13.5118 13.625 14.4882 13.625 15.685C13.625 16.8819 14.8125 17.8583 16.3125 17.8583C17.6875 17.8583 18.8125 16.9764 18.9688 15.9055H19V4L8.25 6.14173Z" fill="black"/>
</svg>

<svg xmlns="http://www.w3.org/2000/svg" width="24" height="24" viewBox="0 0 24 24"><path d="M8.25 6.142v9.574c-.188-.031-.375-.031-.562-.031-1.469 0-2.688.976-2.688 2.173S6.219 20 7.688 20c1.406 0 2.531-.85 2.687-1.921V7.874l6.469-1.291v6.992a3.398 3.398 0 0 0-.532-.063c-1.5 0-2.687.976-2.687 2.173s1.187 2.173 2.687 2.173c1.376 0 2.5-.882 2.657-1.953H19V4L8.25 6.142Z"/></svg>
